X:1
T:Title
%%score { ( 1 3 ) | ( 2 4 ) }
L:1/8
Q:1/4=100
M:4/4
K:G
V:1 treble nm="Grand Piano"
V:3 treble 
V:2 bass 
V:4 bass 
V:1
 [DB]3 [DA] [DG]>[DF] [EG]>E | D4 [DG]4 | F3 F G2 [GB]2 | [FA]6 z2 | B3 A G>F G>E | D4 G4 | %6
w: J.~W.~Suffern * * * * *||||||
 A3 B c2 F2 | [B,DG]8 | [FA]3 G F>G A>B | [FA]4 D4 | G3 A B2 [Gc]2 | d4 c4 | %12
w: ||||||
 [DB]3 [DA] [G,DG]>[A,DF] [G,EG]>[G,CE] | [G,B,D]4 [B,DG]4 | [A,DF]3 [DEG] [DFB]2 [CFA]2 | [B,G]8 | %16
w: ||||
 [CA]4 z4 | [DB]3 G D4 | [Ec]3 [EB] [FA]2 [B,G]2 | A6 _B2 | B3 A G>F G>E | D4 G4 | A3 B c2 F2 | %23
w: |||||||
 [B,G]8 |] %24
w: |
V:2
 [G,,G,]3 [A,,F,] [B,,G,]>[C,A,] [B,,G,]>[C,G,C] | [D,G,B,]2 [C,F,]2 [B,,G,]2 G,,2 | %2
 [D,A,D]3 [D,A,D] [D,B,D]2 [D,D]2 | [D,D]6 z2 | %4
 [G,DG]3 [G,CG][K:bass] [G,B,D]>[D,A,C] [E,G,B,]>[C,G,C] | [B,,G,]4 [E,G,B,]4 | %6
 [D,F,D]3 [D,G,D] [D,A,D]2 [D,CD]2 | G,,8 | z2 z[K:treble] E D>B, D>G | D,8 | %10
 [B,D]3[K:treble] [A,CF] [G,B,G]2[K:bass] [E,G,]2 | [D,A,]8 | [G,,G,]3 [A,,F,] B,,>C, B,,>C, | %13
 D,4 D,4 | D,3 D, D,2 D,2 | G,,8 | z2 z A, D,4 | z2 z B, [B,,G,]4 | [C,G,]3 [C,G,] F,C E,2 | D,8 | %20
 [G,DG]3 [G,CG][K:bass] [G,B,D]>[D,A,C] [E,G,B,]>[C,G,C] | [B,,G,]4 [D,B,D]4 | %22
 [D,CD]3 [D,B,D] [D,A,D]2 [D,F,C]2 | [G,,G,]8 |] %24
V:3
 x8 | z2 A,2 z2 B,2 | x8 | x8 | x8 | x8 | x8 | x8 | x8 | x8 | x8 | F8 | x8 | x8 | x8 | x8 | %16
 D3- [DF] [F,D]4 | x8 | x8 | [DF]8 | x8 | x8 | x8 | x8 |] %24
V:4
 x8 | x8 | x8 | x8 | x4[K:bass] x4 | x8 | x8 | x8 | D,8[K:treble] | x8 | %10
 x3[K:treble] x3[K:bass] x2 | x8 | x8 | x8 | x8 | x8 | D,4 z4 | G,,4 z4 | z4 D,2 z2 | x8 | %20
 x4[K:bass] x4 | x8 | x8 | x8 |] %24

